X: 36011
T: Save The Ham
R: reel
M: 4/4
K: Dmixolydian
E|:FD (3DDD DFAF|FG (3GGG GAGE|c2 AD F2 DF|EA, (3A,A,A, A,B,CE|
F2 EF DEFD|G2 (3GGG GAGE|c2 ADED CE|1 Ddce dcAG:|2 Edce dcAc||
d2 (3ddd dcec|fdcA FDDc|Ac{d}cB [G,2G2]3/2 A|Bc{d}cB [G,G]ABc|
d2 {e}dcde dc|fdcA FDDE|B,C (3CCC C2 fe|1 d2 cedc (3ABc:|2 d2 cedc AG||

